packages/flutter/assets/icons/video.svg

<?xml version="1.0" encoding="UTF-8"?>
<svg width="24px" height="24px" viewBox="0 0 24 24" version="1.1" xmlns="http://www.w3.org/2000/svg" xmlns:xlink="http://www.w3.org/1999/xlink">
    <title>video</title>
    <g id="video" stroke="none" stroke-width="1" fill="none" fill-rule="evenodd">
        <path d="M20,5 L4,5 C3.44771525,5 3,5.44771525 3,6 L3,18 C3,18.5522847 3.44771525,19 4,19 L20,19 C20.5522847,19 21,18.5522847 21,18 L21,6 C21,5.44771525 20.5522847,5 20,5 Z M20,6 L20,18 L4,18 L4,6 L20,6 Z M15.4472136,11.1055728 L9.4472136,8.10557281 C8.7823125,7.77312226 8,8.25661798 8,9 L8,15 C8,15.743382 8.7823125,16.2268777 9.4472136,15.8944272 L15.4472136,12.8944272 C16.1842621,12.5259029 16.1842621,11.4740971 15.4472136,11.1055728 Z M15,12 L9,15 L9,9 L15,12 Z" id="Rectangle" fill="#303846"></path>
    </g>
</svg>

<svg xmlns="http://www.w3.org/2000/svg" width="24" height="24" viewBox="0 0 24 24"><path fill-rule="evenodd" d="M20 5H4a1 1 0 0 0-1 1v12a1 1 0 0 0 1 1h16a1 1 0 0 0 1-1V6a1 1 0 0 0-1-1zm0 1v12H4V6h16zm-4.553 5.106l-6-3A1 1 0 0 0 8 9v6a1 1 0 0 0 1.447.894l6-3a1 1 0 0 0 0-1.788zM15 12l-6 3V9l6 3z"/></svg>
